svg/商业.svg

<svg width="36" height="36" viewBox="0 0 36 36" fill="none" xmlns="http://www.w3.org/2000/svg"><rect x="-48.3" y="-9.8" width="132.6" height="87.6" rx="11.8" stroke="#DDDDDD" stroke-width="0.4"/><path d="M35.9525 27.2501H27.2225C26.7125 27.2501 26.3225 27.6301 26.1525 28.1101C26.0625 28.3601 25.8225 28.5401 25.5425 28.5401H21.2325C20.7225 28.5401 20.3325 28.1601 20.1625 27.6801C20.0725 27.4301 19.8325 27.2501 19.5525 27.2501H10.1925L8.39246 25.8901V33.8101C8.39246 35.0201 9.34246 36.0001 10.5225 36.0001H35.8425C37.0125 36.0001 37.9725 35.0201 37.9725 33.8101V25.8101L36.0225 27.3501L35.9525 27.2601V27.2501Z" fill="#292D32"/><path d="M35.8425 14.578H30.7025V14.198C30.7025 11.018 28.1925 8.448 25.1025 8.448H21.2525C18.1625 8.448 15.6525 11.028 15.6525 14.198V14.578H10.5225C9.34246 14.578 8.39246 15.558 8.39246 16.768V23.158L8.70246 23.798L10.6525 25.338C10.7925 25.448 10.9725 25.508 11.1525 25.508H19.4025C19.8425 25.508 20.2525 25.148 20.2125 24.708C20.1725 24.198 20.5725 23.768 21.0825 23.768H25.3925C25.8325 23.768 26.2425 24.128 26.2025 24.568C26.1625 25.078 26.5625 25.508 27.0725 25.508H35.1125C35.2925 25.508 35.4725 25.448 35.6125 25.338L37.9425 23.498L37.9725 23.538V16.758C37.9725 15.548 37.0225 14.568 35.8425 14.568V14.578ZM28.0725 14.578H18.2725V14.458C18.2725 12.388 19.9025 10.708 21.9225 10.708H24.4325C26.4425 10.708 28.0825 12.388 28.0825 14.458V14.578H28.0725Z" fill="#8D8F91"/><rect x="0.12" y="0.12" width="35.76" height="35.76" rx="11.88" stroke="#D1D5DA" stroke-width="0.24"/><defs><clipPath id="clip0_1970_14250"><rect width="36" height="36" rx="12" fill="white"/></clipPath></defs></svg>

<svg fill="none" viewBox="0 0 36 36"><rect width="132.6" height="87.6" x="-48.3" y="-9.8" stroke="#DDDDDD" stroke-width=".4" rx="11.8"/><path fill="#292D32" d="M35.953 27.25h-8.73c-.51 0-.9.38-1.07.86a.65.65 0 0 1-.61.43h-4.31c-.51 0-.9-.38-1.07-.86a.65.65 0 0 0-.61-.43h-9.36l-1.8-1.36v7.92c0 1.21.95 2.19 2.13 2.19h25.32c1.17 0 2.13-.98 2.13-2.19v-8l-1.95 1.54-.07-.09z"/><path fill="#8D8F91" d="M35.843 14.578h-5.14v-.38c0-3.18-2.51-5.75-5.6-5.75h-3.85c-3.09 0-5.6 2.58-5.6 5.75v.38h-5.13c-1.18 0-2.13.98-2.13 2.19v6.39l.31.64 1.95 1.54c.14.11.32.17.5.17h8.25c.44 0 .85-.36.81-.8a.87.87 0 0 1 .87-.94h4.31c.44 0 .85.36.81.8-.04.51.36.94.87.94h8.04c.18 0 .36-.06.5-.17l2.33-1.84.03.04v-6.78c0-1.21-.95-2.19-2.13-2.19zm-7.77 0h-9.8v-.12c0-2.07 1.63-3.75 3.65-3.75h2.51c2.01 0 3.65 1.68 3.65 3.75v.12z"/><rect width="35.76" height="35.76" x=".12" y=".12" stroke="#D1D5DA" stroke-width=".24" rx="11.88"/></svg>
